!!!OTL: Die geistliche Weinbeer
!!!ARE: Europa, Mitteleuropa, Deutschland
!!!SCT: A0587A
!!!YEM: Copyright 1995, estate of Helmut Schaffrath.
**kern
*ICvox
*Ivox
*M4/2
*k[b-e-]
*g:
{2g
=1
2b-
2b-
4cc
4b-
2cc
=2
2.dd
4cc
2dd
4r}
{4b-
=3
2cc
2dd
4ee-
4dd
2cc
=4
1b-
2r}
{2b-
=5
2b-
2cc
2dd
2dd
=6
2cc
4b-
4a
2g}
{2fn
=7
4g
4a
2b-
2cc
4b-
4a
=8
1.g}
==
!!!AGN: Romanze, Ballade, Lied, religioeses Lied
!! Corners Gsgb 1631 S. 902
!!!ONB: ESAC (Essen Associative Code) Database: ALTDEU
!!!AMT: simple quadruple
!!!AIN: vox
!!!EED: Helmut Schaffrath
!!!EEV: 1.0
*-
